images/advantages-icon.svg

<svg width="40" height="40" viewBox="0 0 40 40" fill="none" xmlns="http://www.w3.org/2000/svg">
<g clip-path="url(#clip0_3840_18573)">
<path d="M32.7279 4.54452C32.7279 3.58138 32.7279 2.70348 32.7279 1.8341C32.7279 1.02438 33.0433 0.598218 33.623 0.581171C34.2283 0.564124 34.5608 1.01586 34.5608 1.8341C34.5608 3.35125 34.5608 4.87693 34.5608 6.39408C34.5608 7.22085 34.2283 7.55326 33.3929 7.55326C31.7987 7.55326 30.213 7.55326 28.6188 7.55326C28.2181 7.55326 27.843 7.43393 27.7151 7.04186C27.6299 6.77763 27.6554 6.42818 27.7492 6.16395C27.8856 5.8145 28.2437 5.72926 28.6017 5.72926C29.3008 5.72926 29.9913 5.72926 30.6904 5.72926C30.8268 5.72926 30.9632 5.71222 31.1422 5.60994C30.4943 5.18377 29.872 4.73203 29.207 4.33996C18.5506 -1.95878 4.68869 4.11835 2.2164 16.2471C0.946151 22.452 2.5574 27.9411 6.87965 32.6033C6.94786 32.68 7.01606 32.7482 7.08426 32.8164C7.48494 33.2596 7.49347 33.8222 7.10131 34.1801C6.71768 34.5296 6.15502 34.5211 5.77991 34.0693C4.9274 33.0636 4.0152 32.0919 3.29057 30.9924C0.588094 26.9012 -0.434924 22.3924 0.127736 17.5256C1.07403 9.33463 7.28034 2.39664 15.3451 0.564124C21.5941 -0.859273 27.2803 0.419228 32.3699 4.30587C32.4722 4.36553 32.5574 4.42519 32.7279 4.54452Z" fill="#DCB62F"/>
<path d="M7.82691 23.1751C8.09971 23.1751 8.25316 23.1751 8.39809 23.1751C9.37848 23.1751 10.3589 23.1666 11.3393 23.1837C11.9275 23.1922 12.3197 23.5757 12.3282 24.0871C12.3367 24.5985 11.9446 24.9991 11.3563 25.0077C9.71096 25.0247 8.06561 25.0247 6.41173 25.0077C5.74677 24.9991 5.39724 24.5304 5.46544 23.8655C5.52511 23.2519 5.75529 22.6893 6.19008 22.2717C6.71011 21.7688 7.2813 21.3256 7.84396 20.8738C8.20201 20.5926 8.59417 20.3624 8.96075 20.0982C9.25913 19.8851 9.55751 19.655 9.82179 19.4078C10.5038 18.7601 10.6743 18.01 10.2736 17.4389C9.87294 16.8594 8.8755 16.6207 8.15086 17.0128C7.7928 17.2003 7.47737 17.5242 7.23015 17.8566C6.84651 18.3765 6.3691 18.5811 5.90022 18.2998C5.43134 18.0185 5.33756 17.4901 5.65299 16.9275C6.60781 15.2314 8.74762 14.541 10.5209 15.3592C12.2174 16.1434 12.8653 18.1975 11.8252 19.7829C11.3904 20.4392 10.751 20.9761 10.1372 21.496C9.55751 21.9904 8.89255 22.3825 8.26169 22.8257C8.14234 22.8939 8.04003 22.9962 7.82691 23.1751Z" fill="#DCB62F"/>
<path d="M19.259 20.2198C20.0092 20.2454 20.8958 20.1175 20.8873 21.1489C20.8787 22.1631 20.0006 22.0523 19.2504 22.0523C19.2504 22.9302 19.2675 23.7655 19.2419 24.6008C19.2249 25.3423 18.5087 25.76 17.8949 25.402C17.571 25.2145 17.4346 24.9162 17.4346 24.5497C17.4346 23.74 17.4346 22.9302 17.4346 22.0609C17.2811 22.0609 17.1447 22.0609 17.0168 22.0609C15.9682 22.0609 14.9197 22.0523 13.8625 22.0609C13.4448 22.0609 13.1123 21.916 12.9248 21.5324C12.7372 21.1574 12.8395 20.8165 13.0867 20.5096C14.5872 18.643 16.0876 16.7679 17.588 14.9013C17.8608 14.5603 18.2189 14.4154 18.6451 14.5689C19.0714 14.7223 19.2504 15.0547 19.2504 15.4979C19.2504 16.9042 19.2504 18.3106 19.2504 19.7084C19.259 19.8533 19.259 20.0067 19.259 20.2198ZM15.6699 20.2113C16.3178 20.2113 16.8634 20.2113 17.409 20.2113C17.409 19.4953 17.409 18.805 17.409 18.0379C16.8037 18.7879 16.2666 19.4698 15.6699 20.2113Z" fill="#DCB62F"/>
<path d="M32.2677 16.8278C31.2532 16.8278 30.3154 16.8278 29.3777 16.8278C29.2072 16.8278 29.0367 16.8278 28.8661 16.7937C28.4314 16.7085 28.1415 16.3505 28.133 15.9243C28.1245 15.4811 28.4314 15.1146 28.8832 15.0294C28.977 15.0123 29.0793 15.0038 29.1816 15.0038C30.6138 15.0038 32.046 14.9953 33.4868 15.0038C34.3478 15.0123 34.74 15.6089 34.4075 16.4101C33.3163 19.0438 32.2165 21.669 31.1253 24.3027C30.9037 24.8312 30.5286 25.0698 30.0852 25.0017C29.4629 24.8994 29.156 24.3027 29.4203 23.6635C29.8721 22.564 30.3325 21.4645 30.7928 20.365C31.2873 19.2143 31.7647 18.0637 32.2677 16.8278Z" fill="#DCB62F"/>
<path d="M22.4468 24.9565C22.6514 23.9251 22.8645 22.8171 23.0862 21.7006C23.538 19.4504 23.9899 17.1917 24.4417 14.9416C24.5781 14.2512 24.9788 13.9017 25.5159 13.9955C26.0615 14.0892 26.3769 14.558 26.2575 15.1291C25.7801 17.5327 25.3027 19.9448 24.8168 22.3483C24.6292 23.3115 24.4417 24.2661 24.2371 25.2292C24.1177 25.7832 23.6915 26.0986 23.197 26.0134C22.7281 25.9281 22.4212 25.5446 22.4468 24.9565Z" fill="#DCB62F"/>
<path d="M38.116 24.9336C38.7808 24.9336 39.2411 25.4706 39.0706 26.0246C38.8746 26.6724 38.6274 27.3116 38.3632 27.9338C38.1671 28.3941 37.6643 28.5645 37.221 28.3855C36.7608 28.198 36.5392 27.7207 36.7182 27.2264C36.9142 26.6553 37.1358 26.0842 37.3574 25.5132C37.4938 25.1382 37.7836 24.9421 38.116 24.9336Z" fill="#DCB62F"/>
<path d="M36.7171 30.7466C36.7086 31.1983 35.4301 32.9115 35.0039 33.0393C34.6204 33.1501 34.2624 33.0734 34.0067 32.741C33.751 32.4171 33.7169 32.0506 33.947 31.7097C34.322 31.1642 34.7226 30.6272 35.1488 30.1158C35.4045 29.8005 35.7625 29.7238 36.146 29.8772C36.5125 30.0306 36.7256 30.363 36.7171 30.7466Z" fill="#DCB62F"/>
<path d="M25.8472 39.1821C25.3954 39.0969 25.0375 38.8156 24.9352 38.415C24.8329 37.9974 24.9863 37.5627 25.3699 37.4007C26.0091 37.128 26.6654 36.8893 27.3217 36.6763C27.7138 36.5484 28.1314 36.7785 28.319 37.145C28.5065 37.5115 28.4553 38.0315 28.0973 38.219C27.3814 38.594 26.6058 38.8667 25.8472 39.1821Z" fill="#DCB62F"/>
<path d="M38.4737 14.1837C38.8913 14.1922 39.2322 14.4394 39.3345 14.8741C39.4879 15.4793 39.6158 16.0929 39.7181 16.7066C39.8033 17.2265 39.4965 17.6442 39.0021 17.7465C38.5418 17.8487 38.0901 17.576 37.9623 17.0902C37.8088 16.4765 37.6639 15.8458 37.5617 15.2236C37.4764 14.6269 37.9026 14.1752 38.4737 14.1837Z" fill="#DCB62F"/>
<path d="M10.204 35.4062C10.8944 35.7557 11.7638 36.0455 12.4116 36.7018C12.6929 36.9916 12.6161 37.3922 12.3775 37.7246C12.1474 38.04 11.7127 38.1934 11.3547 38.0144C10.7325 37.7076 10.1188 37.3751 9.5307 37.0172C9.18124 36.8041 9.07896 36.3609 9.22386 35.9944C9.36876 35.6193 9.65003 35.4148 10.204 35.4062Z" fill="#DCB62F"/>
<path d="M39.9816 21.0719C39.9475 21.4981 39.9134 21.9243 39.8623 22.3419C39.8026 22.8874 39.3935 23.2198 38.8736 23.1857C38.3792 23.1431 38.0383 22.7681 38.0638 22.2226C38.0809 21.643 38.1235 21.0634 38.1746 20.4838C38.2258 19.9042 38.6179 19.5463 39.1463 19.5804C39.6662 19.6145 40.0072 20.0236 39.9901 20.6117C39.9816 20.7651 39.9646 20.927 39.956 21.0805C39.9731 21.0719 39.9731 21.0719 39.9816 21.0719Z" fill="#DCB62F"/>
<path d="M33.1791 34.7249C32.9746 35.0317 32.8638 35.3045 32.6677 35.4749C32.2245 35.85 31.7557 36.1909 31.2784 36.5233C30.8011 36.8557 30.2641 36.762 29.9658 36.3358C29.676 35.9181 29.7613 35.4067 30.2045 35.0658C30.6647 34.7078 31.1335 34.3584 31.6023 34.0174C31.9177 33.7873 32.2842 33.7191 32.591 33.9578C32.8211 34.1368 32.966 34.4351 33.1791 34.7249Z" fill="#DCB62F"/>
<path d="M38.0897 11.5078C38.0983 12.0703 37.8681 12.4027 37.4761 12.5391C37.101 12.6669 36.6749 12.5647 36.4618 12.2067C36.1123 11.6271 35.7884 11.0219 35.4901 10.4168C35.3111 10.0588 35.456 9.63264 35.7629 9.38546C36.0782 9.13829 36.547 9.07862 36.8283 9.35137C37.4675 9.9821 37.7829 10.8259 38.0897 11.5078Z" fill="#DCB62F"/>
<path d="M15.1835 37.5469C15.7972 37.6832 16.5046 37.8111 17.2035 38.0071C17.6127 38.1265 17.8002 38.5867 17.7149 39.0129C17.6297 39.4305 17.2632 39.78 16.8285 39.7118C16.1126 39.601 15.4051 39.4476 14.7147 39.2601C14.2886 39.1407 14.0925 38.689 14.1778 38.2714C14.263 37.8281 14.621 37.5469 15.1835 37.5469Z" fill="#DCB62F"/>
<path d="M21.0488 39.9665C20.8613 39.9751 20.6823 40.0006 20.4948 40.0006C19.9919 39.9921 19.6083 39.6512 19.5742 39.1824C19.5316 38.6795 19.8385 38.2619 20.3584 38.2022C21.0062 38.1255 21.6539 38.0914 22.3017 38.0744C22.7705 38.0658 23.137 38.4409 23.1626 38.8926C23.1967 39.3699 22.8813 39.779 22.3955 39.8557C22.1739 39.8898 21.9437 39.9154 21.7221 39.9324C21.5005 39.9495 21.2704 39.958 21.0488 39.9665Z" fill="#DCB62F"/>
</g>
<defs>
<clipPath id="clip0_3840_18573">
<rect width="40" height="40" fill="white"/>
</clipPath>
</defs>
</svg>

<svg width="40" height="40" fill="none" xmlns="http://www.w3.org/2000/svg"><g clip-path="url(#clip0_3840_18573)" fill="#DCB62F"><path d="M32.728 4.545v-2.71c0-.81.315-1.237.895-1.254.605-.017.938.435.938 1.253v4.56c0 .827-.333 1.16-1.168 1.16h-4.774c-.4 0-.776-.12-.904-.512-.085-.264-.06-.614.034-.878.137-.35.495-.435.853-.435h2.088a.834.834 0 00.452-.12c-.648-.425-1.27-.877-1.935-1.269-10.656-6.299-24.518-.222-26.99 11.907-1.27 6.205.34 11.694 4.663 16.356.068.077.136.145.204.213.4.444.41 1.006.017 1.364-.383.35-.946.341-1.321-.11-.853-1.006-1.765-1.978-2.49-3.078-2.702-4.09-3.725-8.6-3.162-13.466C1.074 9.335 7.28 2.396 15.345.564 21.595-.859 27.28.42 32.37 4.306c.102.06.187.12.358.239z"/><path d="M7.827 23.175h.571c.98 0 1.96-.008 2.941.009.588.008.98.392.99.903.008.512-.384.912-.973.92a239.7 239.7 0 01-4.944 0c-.665-.008-1.015-.477-.947-1.142.06-.613.29-1.176.725-1.593.52-.503 1.091-.946 1.654-1.398.358-.281.75-.512 1.117-.776.298-.213.597-.443.86-.69.683-.648.853-1.398.453-1.97-.401-.579-1.398-.817-2.123-.425-.358.187-.674.511-.92.844-.384.52-.862.724-1.33.443-.47-.282-.563-.81-.248-1.373.955-1.696 3.095-2.386 4.868-1.568 1.696.784 2.344 2.839 1.304 4.424-.435.656-1.074 1.193-1.688 1.713-.58.494-1.244.887-1.875 1.33-.12.068-.222.17-.435.35zm11.432-2.955c.75.025 1.637-.102 1.628.929-.008 1.014-.886.903-1.637.903 0 .878.017 1.713-.008 2.549-.017.741-.733 1.159-1.347.801-.324-.188-.46-.486-.46-.852v-2.49h-.418c-1.049 0-2.097-.008-3.154 0-.418 0-.75-.144-.938-.528-.188-.375-.086-.715.162-1.022 1.5-1.867 3-3.742 4.501-5.609.273-.34.63-.486 1.057-.332.426.153.605.486.605.929v4.21c.009.145.009.299.009.512zm-3.59-.009h1.74v-2.173c-.605.75-1.142 1.432-1.74 2.173zm16.599-3.383h-2.89c-.17 0-.341 0-.512-.034a.892.892 0 01-.733-.87c-.008-.443.298-.81.75-.895.094-.017.196-.025.299-.025 1.432 0 2.864-.009 4.305 0 .86.008 1.253.605.92 1.406-1.09 2.634-2.19 5.259-3.282 7.893-.221.528-.596.767-1.04.699-.622-.103-.929-.7-.665-1.338.452-1.1.912-2.2 1.373-3.299.494-1.15.972-2.301 1.475-3.537zm-9.821 8.128c.204-1.03.418-2.139.64-3.255l1.355-6.76c.136-.69.537-1.04 1.074-.946.546.094.86.563.742 1.134-.478 2.404-.955 4.816-1.441 7.22-.188.962-.375 1.917-.58 2.88-.12.554-.545.87-1.04.784-.469-.085-.776-.468-.75-1.057zm15.669-.022c.665 0 1.125.537.955 1.09a18.983 18.983 0 01-.708 1.91c-.196.46-.699.63-1.142.451-.46-.187-.682-.664-.503-1.159.196-.57.418-1.142.64-1.713.136-.375.426-.57.758-.58zm-1.399 5.813c-.008.451-1.287 2.164-1.713 2.292-.384.111-.742.034-.997-.298-.256-.324-.29-.69-.06-1.031a21.64 21.64 0 011.202-1.594c.255-.316.614-.392.997-.239.367.154.58.486.571.87zm-10.87 8.435c-.452-.085-.81-.366-.912-.767-.102-.418.051-.852.435-1.014.64-.273 1.295-.512 1.952-.725.392-.128.81.102.997.469.188.366.136.886-.222 1.074-.716.375-1.491.648-2.25.963zm12.627-24.998c.417.008.758.255.86.69.154.605.282 1.219.384 1.833.085.52-.222.937-.716 1.04-.46.102-.912-.171-1.04-.657a23.4 23.4 0 01-.4-1.866c-.086-.597.34-1.049.912-1.04zm-28.27 21.222c.69.35 1.56.64 2.208 1.296.28.29.204.69-.035 1.023-.23.315-.664.468-1.022.29a23.55 23.55 0 01-1.824-.998c-.35-.213-.452-.656-.307-1.023.145-.375.426-.58.98-.588zm29.778-14.334c-.035.426-.069.852-.12 1.27-.06.545-.468.878-.988.844-.495-.043-.836-.418-.81-.963.017-.58.06-1.16.11-1.74.052-.579.444-.937.972-.903.52.035.861.444.844 1.032-.008.153-.025.315-.034.469.017-.01.017-.01.026-.01zM33.18 34.725c-.205.307-.316.58-.512.75-.444.375-.912.716-1.39 1.048-.477.333-1.014.239-1.312-.187-.29-.418-.205-.93.238-1.27.46-.358.93-.708 1.398-1.049.316-.23.682-.298.989-.06.23.18.375.478.588.768zm4.91-23.217c.008.562-.222.895-.614 1.031-.375.128-.801.026-1.014-.332a24.01 24.01 0 01-.972-1.79c-.179-.358-.034-.784.273-1.032.315-.247.784-.306 1.065-.034.64.631.955 1.475 1.262 2.157zM15.184 37.547c.613.136 1.32.264 2.02.46.409.12.596.58.51 1.006-.084.418-.45.767-.886.699a19.401 19.401 0 01-2.113-.452c-.426-.12-.623-.571-.537-.989.085-.443.443-.724 1.005-.724zm5.865 2.42c-.188.008-.367.034-.554.034-.503-.009-.887-.35-.92-.819-.043-.503.264-.92.783-.98.648-.076 1.296-.11 1.944-.128a.856.856 0 01.86.819.893.893 0 01-.767.963c-.221.034-.451.06-.673.076-.222.017-.452.026-.673.035z"/></g><defs><clipPath id="clip0_3840_18573"><path fill="#fff" d="M0 0h40v40H0z"/></clipPath></defs></svg>
